X:217
T:Old Joe Clark
Z:Jack Campin, http://www.campin.me.uk/
F:Jack Campin's Nine-Note Tunebook
% last edit 03-02-2013
M:2/4
L:1/8
Q:1/4=104
K:DMix
A|AB  cB|AG F2|AB  cB|A3
A|AB  cB|AG F2|DF  EC|D3||
z|D>D D2|AG F2|D>D DF|E3
z|D>D D2|AG F2|DF  EC|D3|]

